X:1
T:Why Do You Wait?
T:George Frederick Root, 1878
T:Why Do You Wait?
T:Public Domain
T:Public Domain
C:George Frederick Root, 1878
Z:Public Domain
%%score ( 1 2 ) 3
L:1/8
M:6/8
K:A
V:1 treble 
V:2 treble 
V:3 bass 
V:1
 [CE][CE][CE] [DF]2 [CE] | [CE] [CA]4 [CA] | [EB][EB][EB] [EA][EA][EB] | [Ec]3- [Ec]2 [CE] | %4
w: 1.~Why do you wait, dear|bro- ther, Oh,|why do you tar- ry so|long? * Your|
w: 2.~What do you hope, dear|bro- ther, To|gain by a fur- ther de-|lay? * There’s|
w: 3.~Do you not feel, dear|bro- ther, His|Spir- it now striv- ing with-|in? * Oh,|
w: 4.~Why do your wait, dear|bro- ther? The|har- vest is pass- ing a-|way, * Your|
 [CE][CE]E [DG][DF][DE] | [CE] [CA]4 ([EB]/[EB]/) | [Ec][Fd][Ec] [DB][DF][DG] | [CA]6 |: %8
w: Sav- ior is wait- ing to|give you A *|place in His sanc- ti- fied|throng.|
w: no one to save you but|Je- sus, There’s *|no o- ther way but His|way.|
w: why not ac- cept His sal-|va- tion, And *|throw off your bur- den of|sin?|
w: Sav- ior is long- ing to|bless you, There~are *|dan- ger and death in de-|lay.|
"^Refrain" [Ec]3 [CA]3 | [FA]3 [DF]3 | [DE]2 [DE] [DG][DF][DE] | (E3 A3) | [Ec]3 [CA]3 | %13
w: |||||
w: |||||
w: |||||
w: |||||
 [FA]3 [DF]3 | [DE]2 [DE] [DG][DF][DE] | [CA]6 |] %16
w: |||
w: |||
w: |||
w: |||
V:2
 x6 | x6 | x6 | x6 | x6 | x6 | x6 | x6 |: x6 | x6 | x6 | C6 | x6 | x6 | x6 | x6 |] %16
V:3
 [A,,A,][A,,A,][A,,A,] [A,,A,]2 [A,,A,] | [A,,A,] [A,,A,]4 [A,,A,] | %2
w: ~ ~ ~ ~ ~|~ ~ ~|
 [E,G,][E,G,][E,G,] [E,F,][E,F,][E,F,G,] | [A,,A,]3- [A,,A,]2 [A,,A,] | %4
w: ~ ~ ~ ~ ~ ~|~ * ~|
 [A,,A,][A,,A,][C,A,] [E,B,][E,A,][E,G,] | [A,,A,] [A,,A,]4 ([E,G,]/[E,G,]/) | %6
w: ~ ~ ~ ~ ~ ~|~ ~ ~ *|
 A,A,A, [E,G,][E,B,][E,B,] | [A,,A,]6 |: [A,,A,]3 [A,,A,]3 | [D,A,]3 [D,A,]3 | %10
w: ~ ~ ~ ~ ~ ~|~|Why not?|Why not?|
 [E,G,]2 [E,G,] [E,B,][E,B,][E,B,] | [A,,A,]6 | [A,,A,]3 [A,,A,]3 | [D,A,]3 [D,A,]3 | %14
w: Why not come to Him|now?|Why not?|Why not?|
 [E,G,]2 [E,G,] [E,B,][E,B,][E,B,] | [A,,A,]6 |] %16
w: Why not come to Him|now?|

